public/assets/img/program4.svg

<svg width="73" height="73" viewBox="0 0 73 73" fill="none" xmlns="http://www.w3.org/2000/svg">
<path d="M69.3643 0H3.6357C1.63085 0 0 1.63095 0 3.63574V53.0767C0 55.0815 1.63085 56.7124 3.6357 56.7124H25.1309L22.9601 63.5541H19.1596C16.5552 63.5541 14.4366 65.6728 14.4366 68.2771V71.1951C14.4366 72.1903 15.2463 73 16.2415 73H56.7545C57.7497 73 58.5594 72.1903 58.5594 71.1951V68.2771C58.5594 65.6728 56.4408 63.5541 53.8364 63.5541H50.0396L47.8656 56.7124H69.3643C71.3691 56.7124 73 55.0815 73 53.0767V3.63574C73 1.63095 71.3691 0 69.3643 0ZM47.7955 63.5541H38.6601C38.0694 63.5541 37.5908 64.0327 37.5908 64.6234C37.5908 65.2141 38.0694 65.6927 38.6601 65.6927H53.8363C55.2612 65.6927 56.4206 66.852 56.4206 68.2771V70.8613H16.5753V68.2771C16.5753 66.852 17.7346 65.6927 19.1596 65.6927H33.7255C34.3162 65.6927 34.7949 65.2141 34.7949 64.6234C34.7949 64.0327 34.3162 63.5541 33.7255 63.5541H25.2038L27.3746 56.7124H45.6217L47.7955 63.5541ZM69.3643 54.5738H3.6357C2.81029 54.5738 2.13873 53.9022 2.13873 53.0767V49.296H33.7255C34.3162 49.296 34.7949 48.8173 34.7949 48.2266C34.7949 47.6359 34.3162 47.1573 33.7255 47.1573H2.13873V3.63574C2.13873 2.81021 2.81029 2.13867 3.6357 2.13867H69.3643C70.1897 2.13867 70.8613 2.81021 70.8613 3.63574V47.1573H38.6601C38.0694 47.1573 37.5908 47.6359 37.5908 48.2266C37.5908 48.8173 38.0694 49.296 38.6601 49.296H70.8613V53.0767C70.8613 53.9022 70.1897 54.5738 69.3643 54.5738Z" fill="#90A1AE"/>
<path d="M21.9725 8.68543C13.1595 8.68543 5.98959 15.8553 5.98959 24.6683C5.98959 33.4791 13.1595 40.647 21.9725 40.647C30.7832 40.647 37.9512 33.4791 37.9512 24.6683C37.9513 15.8553 30.7832 8.68543 21.9725 8.68543ZM34.3114 25.7093H35.7735C35.5481 28.7268 34.3504 31.4774 32.494 33.649L31.4544 32.6095C31.0367 32.192 30.3597 32.192 29.9421 32.6095C29.5245 33.0272 29.5245 33.7042 29.9421 34.1218L30.9839 35.1636C28.8144 37.0291 26.0624 38.2352 23.0418 38.4672V36.9788C23.0418 36.3881 22.5632 35.9094 21.9725 35.9094C21.3817 35.9094 20.9031 36.3881 20.9031 36.9788V38.4672C17.8815 38.2353 15.1287 37.0291 12.9584 35.1636L14.002 34.1224C14.42 33.7052 14.4207 33.0282 14.0036 32.6102C13.5864 32.1921 12.9092 32.1916 12.4913 32.6086L11.4485 33.6493C9.59135 31.4775 8.39323 28.7268 8.16767 25.7091H9.6337C10.2244 25.7091 10.7031 25.2305 10.7031 24.6398C10.7031 24.0491 10.2244 23.5704 9.6337 23.5704H8.17195C8.4092 20.5605 9.61331 17.8183 11.4731 15.6549L12.4913 16.6708C12.7002 16.8791 12.9734 16.9832 13.2467 16.9832C13.5208 16.9832 13.7948 16.8785 14.0037 16.6692C14.4209 16.2511 14.4202 15.5741 14.0021 15.1571L12.9877 14.1447C15.1535 12.2928 17.895 11.0957 20.9034 10.8649V12.3008C20.9034 12.8915 21.382 13.3701 21.9727 13.3701C22.5635 13.3701 23.0421 12.8915 23.0421 12.3008V10.8652C26.0489 11.096 28.7893 12.2928 30.9543 14.1443L29.9392 15.1572C29.521 15.5744 29.5203 16.2515 29.9374 16.6694C30.1464 16.8788 30.4203 16.9835 30.6945 16.9835C30.9677 16.9835 31.2411 16.8794 31.4499 16.6712L32.4688 15.6546C34.3282 17.8181 35.5322 20.5603 35.7694 23.5707H34.3114C33.7206 23.5707 33.242 24.0494 33.242 24.6401C33.242 25.2308 33.7208 25.7093 34.3114 25.7093Z" fill="#90A1AE"/>
<path d="M28.1156 23.5706H25.3373C24.8831 22.1449 23.5467 21.1091 21.9725 21.1091C21.8451 21.1091 21.7195 21.1162 21.5956 21.1294L19.1523 15.2681C18.9251 14.7232 18.299 14.4658 17.7537 14.6925C17.2087 14.9198 16.9509 15.5459 17.1781 16.0911L19.638 21.992C18.9028 22.6396 18.4377 23.5863 18.4377 24.6399C18.4377 26.5867 20.0234 28.1706 21.9725 28.1706C23.5467 28.1706 24.8831 27.1349 25.3373 25.7093H28.1156C28.7063 25.7093 29.185 25.2306 29.185 24.6399C29.185 24.0492 28.7063 23.5706 28.1156 23.5706ZM21.9725 26.0319C21.2028 26.0319 20.5764 25.4074 20.5764 24.6399C20.5764 23.8723 21.2028 23.2478 21.9725 23.2478C22.74 23.2478 23.3645 23.8723 23.3645 24.6399C23.3645 25.4074 22.74 26.0319 21.9725 26.0319Z" fill="#90A1AE"/>
<path d="M42.8958 31.028H65.1732C66.1861 31.028 67.0104 30.2039 67.0104 29.1907V7.82697C67.0104 6.81167 66.1863 5.98571 65.1732 5.98571H42.8958C41.8805 5.98571 41.0545 6.81167 41.0545 7.82697V29.1909C41.0545 30.2039 41.8805 31.028 42.8958 31.028ZM64.8715 21.2547H59.0726V15.7589H64.8715V21.2547ZM51.1309 15.7589H56.9339V21.2547H51.1309V15.7589ZM51.1309 23.3934H56.9339V28.8893H51.1309V23.3934ZM56.9339 13.6202H51.1309V8.12424H56.9339V13.6202ZM48.9922 21.2547H43.1932V15.7589H48.9922V21.2547ZM43.1932 23.3934H48.9922V28.8893H43.1932V23.3934ZM59.0726 28.8893V23.3934H64.8715V28.8893H59.0726ZM64.8715 13.6202H59.0726V8.12424H64.8715V13.6202ZM48.9922 8.12424V13.6202H43.1932V8.12424H48.9922Z" fill="#90A1AE"/>
<path d="M42.8676 43.3467H65.1973C66.197 43.3467 67.0103 42.5335 67.0103 41.5337V37.6255C67.0103 36.6258 66.197 35.8125 65.1973 35.8125H42.8676C41.8678 35.8125 41.0545 36.6258 41.0545 37.6255V41.5337C41.0545 42.5335 41.8678 43.3467 42.8676 43.3467ZM43.1932 37.9513H64.8715V41.2082H43.1932V37.9513Z" fill="#90A1AE"/>
</svg>

<svg width="73" height="73" fill="none" xmlns="http://www.w3.org/2000/svg"><path d="M69.364 0H3.636A3.64 3.64 0 0 0 0 3.636v49.44a3.64 3.64 0 0 0 3.636 3.636H25.13l-2.17 6.842H19.16a4.728 4.728 0 0 0-4.723 4.723v2.918c0 .995.81 1.805 1.804 1.805h40.514c.995 0 1.804-.81 1.804-1.805v-2.918a4.728 4.728 0 0 0-4.723-4.723H50.04l-2.174-6.842h21.498A3.64 3.64 0 0 0 73 53.077V3.636A3.64 3.64 0 0 0 69.364 0ZM47.795 63.554H38.66a1.07 1.07 0 1 0 0 2.139h15.176a2.587 2.587 0 0 1 2.585 2.584v2.584H16.575v-2.584a2.587 2.587 0 0 1 2.585-2.584h14.565a1.07 1.07 0 1 0 0-2.139h-8.521l2.17-6.842h18.248l2.173 6.842Zm21.57-8.98H3.634a1.499 1.499 0 0 1-1.496-1.497v-3.781h31.586a1.07 1.07 0 1 0 0-2.139H2.14V3.636c0-.826.671-1.497 1.497-1.497h65.728c.826 0 1.497.671 1.497 1.497v43.521h-32.2a1.07 1.07 0 1 0 0 2.139h32.2v3.78c0 .826-.671 1.498-1.497 1.498Z" fill="#90A1AE"/><path d="M21.973 8.685c-8.813 0-15.983 7.17-15.983 15.983 0 8.811 7.17 15.979 15.982 15.979 8.811 0 15.98-7.168 15.98-15.979 0-8.813-7.169-15.983-15.98-15.983ZM34.31 25.71h1.462a13.78 13.78 0 0 1-3.279 7.94l-1.04-1.04a1.07 1.07 0 0 0-1.512 1.513l1.042 1.042a13.782 13.782 0 0 1-7.942 3.303V36.98a1.07 1.07 0 1 0-2.139 0v1.488a13.788 13.788 0 0 1-7.945-3.303l1.044-1.042a1.07 1.07 0 0 0-1.51-1.513l-1.044 1.04a13.778 13.778 0 0 1-3.28-7.94h1.466a1.07 1.07 0 1 0 0-2.139H8.172a13.786 13.786 0 0 1 3.301-7.915l1.018 1.016a1.066 1.066 0 0 0 1.513-.002 1.069 1.069 0 0 0-.002-1.512l-1.014-1.012a13.784 13.784 0 0 1 7.915-3.28V12.3a1.07 1.07 0 1 0 2.14 0v-1.436a13.777 13.777 0 0 1 7.911 3.28l-1.015 1.012a1.07 1.07 0 1 0 1.51 1.514l1.02-1.016a13.788 13.788 0 0 1 3.3 7.916h-1.458a1.07 1.07 0 1 0 0 2.138Z" fill="#90A1AE"/><path d="M28.116 23.57h-2.779a3.537 3.537 0 0 0-3.741-2.44l-2.444-5.862a1.07 1.07 0 0 0-1.974.823l2.46 5.901a3.521 3.521 0 0 0-1.2 2.648 3.537 3.537 0 0 0 3.535 3.53 3.537 3.537 0 0 0 3.364-2.46h2.779a1.07 1.07 0 1 0 0-2.14Zm-6.143 2.462c-.77 0-1.397-.625-1.397-1.392a1.394 1.394 0 0 1 2.788 0c0 .767-.624 1.392-1.392 1.392ZM42.896 31.028h22.277a1.84 1.84 0 0 0 1.837-1.837V7.827a1.841 1.841 0 0 0-1.837-1.841H42.896a1.843 1.843 0 0 0-1.842 1.841v21.364c0 1.013.826 1.837 1.842 1.837Zm21.975-9.773h-5.798v-5.496h5.798v5.496Zm-13.74-5.496h5.803v5.496H51.13v-5.496Zm0 7.634h5.803v5.496H51.13v-5.496Zm5.803-9.773H51.13V8.124h5.803v5.496Zm-7.942 7.635h-5.799v-5.496h5.8v5.496Zm-5.799 2.138h5.8v5.496h-5.8v-5.496Zm15.88 5.496v-5.496h5.798v5.496h-5.798ZM64.87 13.62h-5.798V8.124h5.798v5.496ZM48.992 8.124v5.496h-5.799V8.124h5.8ZM42.868 43.347h22.33c.999 0 1.812-.814 1.812-1.813v-3.908c0-1-.813-1.813-1.813-1.813h-22.33c-1 0-1.813.813-1.813 1.813v3.908c0 1 .814 1.813 1.814 1.813Zm.325-5.396h21.678v3.257H43.194v-3.257Z" fill="#90A1AE"/></svg>
